X: 1
T: Ungerska J\"arnv\"agns Polkett
T: Hungarian Railway Polkett
C: Magnus B\"ackstr\"om, 1988
N: Ritard greatly before end on the 2nd measure.
R: polkett
Z: John Chambers <jc@trillian.mit.edu> http://trillian.mit.edu/~jc/music/Scand
M: 2/4
L: 1/16
K: D
|: A2 \
| "D"d2AB "A7"A2G2 | "D"HF6 "(A)"A2 | "D"d2AB A-Bcd | "A7"e6 f2 \
| g2fg f2ed | c-ABc B2A2 | A-Bcd e-fge | "D"f-gfe f2d2- |
| "D"d2AB "A7"A2G2 | "D"F6 "(A)"A2 | "D"d2AB A-Bcd | "A7"e6 f2 \
| g2fg f2ed | c-Ace a4 | a-baf g2ec | "D".d2.f2d2 :|
|: A2 \
| "D"D-EFG A-Bcd | "A7"e-dcB c2A2 :|1 e-dcB c2eg | f-edc B2 \
                                   |2 e-dcB c2eg | "D"f2-.d2 d2 :|
